app/dist/common/images/unisplendour-co-l.svg

<svg height="18" viewBox="0 0 18 18" width="18" xmlns="http://www.w3.org/2000/svg"><path d="m0 0h18v18h-18z" fill="#f0f3fa"/><g fill="#802992"><path d="m11 5h-6v6h3v-1h-2v-4h4v3.29l-1-.29 1 2h1z"/><path d="m7 13h6v-6h-3v1h2v4h-4v-5 1.71l1 .29-1-2h-1z"/></g></svg>

<!-- by TradingView --><svg width="18" height="18" viewBox="0 0 18 18" xmlns="http://www.w3.org/2000/svg"><path fill="#F0F3FA" d="M0 0h18v18H0z"/><path d="M11 5H5v6h3v-1H6V6h4v3.29L9 9l1 2h1V5Z" fill="#802992"/><path d="M7 13h6V7h-3v1h2v4H8V7v1.71L9 9 8 7H7v6Z" fill="#802992"/></svg>
